X: 1
T: Basin Street Blues
M: 4/4
L: 1/8
R: Traditional
K: C
F:https://www.youtube.com/watch?v=5yM4Cn1p5xs
P:A
G/2^F/2=F/2E/2 || "C" EE F2 ^FG-G2 | EE F2 ^FG-G2 | "C" cG_BA "G7" GA-A2 | "C" cG_BA "G7" GA-A2| 
"C" Gc2 G "C7"c2 GG|"F" c2 c"Fm"d-d4 | "C" c2 _BA GEF^F | "G7" G2 EC"C"-C2 z "G+7" G |
